X: 1955
T: Yalnız Akşamlarımda
C: Ömer Sami Güpgüp
O: Turkey
F: http://compmusic.upf.edu/node/140
N: huzzam--sarki--duyek--yalniz_aksamlarimda--omer_sami_gupgup
N: makam= huzzam
N: form= sarki
N: usul= duyek = 8/4
M: 8/4
L: 1/16
K: C _1/4B _3/4e ^3/4f 
Q: 1/4=144
%%MIDI tuningsystem comma53
B2 d4 cB B8  | c2 _2/4e4 dc c8  | d2 f4 _2/4ed d8  | \
w:  ARANAĞME  |   |   | 
f2 g4 f_2/4e g4 z4  | 
w:   | 
g2 a4 gf f4 z4  | fg a_7/8b c'd' c'b ba ag gf _2/4ed  | 
w:   |   | 
cd _2/4eg a_7/8b ab (3g2f2g2 (3f2e2f2  | \
w:   | 
Bc Bc dc cB B8  | 
w:   | 
B4 c4 d4 d4  | _2/4e2 f4 e2 fe dc Bc d2  | \
w:  Yal nız  ak şam  |  la rım da  SAZ  | 
z2 d6 _2/4e4 f2 z2  | _2/4e2 g6 (3g2f2g2 (3a2g2f2  | 
w:  hül yâ ya   |  da lıp  SAZ  | 
g4 a2 _7/8b2 a2 g2 gf g2  | f8 gf _2/4eg f4  | \
w:  kal bi me  gir  |  sen   SAZ  | 
g4 g2 f2 _2/4e3g gf e2  | 
w:  kal bi me  gir  | 
d16  | _7/8ba bg gg _2/4ee g4 z4  | ff g_2/4e de de f4 z4  | 
w:  sen    |  SAZ  |   | 
fg a_7/8b c'd' c'b ba ag gf _2/4ed  | \
w:   | 
Bc Bc dd cB cd _2/4ef g4  | 
w:   | 
f2 f4 _2/4e2 (3f2g2f2 ag f2  | g2 g8-g2 z4  | \
w:  İ çim *  de  *  *  SAZ  |  ya nan   | 
fg a4 gf f4 z4  | _2/4e2 g2 f2 e2 e2 g2 f2 e2  | 
w:  sev *  *  *  *  dâ   |  a te şi ni  SAZ  | 
g4 g8 g2 f2  | _7/8b3a gf g2 f8  | gf _2/4e2 e4 d2 c2 d2 e2  | \
w:  ah  bir  ke re   |  gör *  *  *  *  sen    |  ah  *  *  bir  *  *  ke re   | 
d2 c2 c2 B2 B8  | 
w:  gör *  *  *  sen    | 
_7/8ba bg gg _2/4ee g4 z4  | ff g_2/4e de de f4 z4  | \
w:  SAZ  |   | 
fg a_7/8b c'd' c'b ba ag gf _2/4ed  | 
w:   | 
Bc Bc dd cB cd _2/4ef g4  | f2 f4 _2/4e2 (3f2g2f2 ag f2  | 
w:   |  İ çim *  de  *  *  SAZ  | 
g2 g8-g2 z4  | fg a4 gf f4 z4  | _2/4e2 g2 f2 e2 e2 g2 f2 e2  | \
w:  ya nan   |  sev *  *  *  *  dâ   |  a te şi ni  SAZ  | 
g4 g8 g2 f2  | 
w:  ah  bir  ke re   | 
_7/8b3a gf g2 f8  | gf _2/4e2 e4 d2 c2 d2 e2  | \
w:  gör *  *  *  *  sen    |  ah  *  *  bir  *  *  ke re   | 
d2 c2 c2 B2 B8  | _7/8ba bg gg _2/4ee g4 z4  | 
w:  gör *  *  *  sen    |  SAZ  | 
ff g_2/4e de de f4 z4  | fg a_7/8b c'd' c'b ba ag gf _2/4ed  | 
w:   |   | 
g2 b4 c'2 bc' b^a b4  | z2 g6 b6 b2  | \
w:   |  Gön lüm de   | 
z2 g4 _b2 ag ^f^e f4  | z2 d4 =e2 dc B^A B4  | 
w:  sön me yen   |  bir  ı şık *  *  *  sın   | 
z2 d4 =e2 dc B^A B4  | d4 g6 a2 b2 z2  | \
w:  SAZ  |  cis mim  o na   | 
z2 ba g2 f4 g2 z4  | g4 g4 g2 f2 z4  | 
w:  per *  *  vâ ne   |  cis mim  o na   | 
z2 gf _2/4e2 e4 d2 z4  | _7/8ba bg gg _2/4ee g4 z4  | \
w:  per *  *  vâ ne    |  SAZ  | 
ff g_2/4e de de f4 z4  | 
w:   | 
fg a_7/8b c'd' c'b ba ag gf _2/4ed  | \
w:   | 
Bc Bc dd cB cd _2/4ef g4  | 
w:   | 
f2 f4 _2/4e2 (3f2g2f2 ag f2  | g2 g8-g2 z4  | \
w:  İ çim *  de  *  *  SAZ  |  ya nan   | 
fg a4 gf f4 z4  | _2/4e2 g2 f2 e2 e2 g2 f2 e2  | 
w:  sev *  *  *  *  dâ   |  a te şi ni  SAZ  | 
g4 g8 g2 f2  | _7/8b3a gf g2 f8  | gf _2/4e2 e4 d2 c2 d2 e2  | \
w:  ah  bir  ke re   |  gör *  *  *  *  sen    |  ah  *  *  bir  *  *  ke re   | 
d2 c2 c2 B2 B8  | 
w:  gör *  *  *  sen    | 
|


